X: 10
T: The Lisnagun
R: jig
M: 6/8
L: 1/8
K: Cmaj
|:cAG c3|deg e3|deg edc|dcA cAG|
cAG c3|deg e3|deg edc|1 dcB c3:|2 dcB cde||
|:g3 edc|deg e3|deg edc|dcB cAG|
g3 edc|deg e3|deg edc|dcB c3:||


Tune 3842	Setting 16769

